!!!OTL: N&auml;chtlicher Besuch mit dem Verlobungsring (177b), S.388
!!!id: T0355
**kern
*clefG2
*k[b-]
*F:
{4cc
=1
4cc
8dd
8cc
=2
4b-
4b-
=3
4b-
8cc
8b-
=4
4a}
4r
=5
{4cc
8cc
8cc
=6
4cc
8dd
8cc
=7
4b-
4cc
=8
4a}
=9
{8f
8a
=10
8cc
8cc
8cc
8cc
=11
4cc
8a
8f
=12
4f
8cc
8cc
=13
4cc}
=14
{8dd
8cc
=15
4b-
8cc
8b-
=16
4b-
8cc
8b-
=17
4b-
4cc
=18
4a}
=19
{8f
8a
=20
8cc
8cc
8cc
8cc
=21
4cc
8a
8f
=22
4f
8cc
8cc
=23
4cc}
=24
{8dd
8cc
=25
4b-
8cc
8b-
=26
4b-
8cc
8b-
=27
4b-
4cc
=28
4a}
==
*-
!!!minrhy: 8
!!!meters: 2/4 ]  ZZ[6
!!!cut: N&auml;chtlicher Besuch mit dem Verlobungsring (177b), S.388
!!!reg: Luxemburg
!!!trd: Singendes Volk, Esch-Alzette, 1937 posth.
!!!rhy1: X_  X_XX  X_X_  X_XX  X_0_
!!!rhy2: X_XX  X_XX  X_X_  X_
!!!key: T0355  08  F 2/4 ]  ZZ[6
!!!mod: PENTATONIK ]  AMBITUS[6
!!!kad: 335353
!!!akz: 5443_5543_5515_4443_5515_4443_
!!!fot: 'a__b__c__d__c__d__
!!!for: 'a__b__c__bv_c__bv_
!!!fok: '\__\__~a_Sd_~a_Sd_
!! PHRAS[VORWIEGEND AUFTAKTIG]
!!!fkt: Tage-, W&auml;chter-, Fenstergang-, St&auml;ndchenlieder, Liebeslied
!!!bem: StraPen, fff Witry, 21.1.1933, Textblatt von hhh Johann Barthel
!! THILL; Mathias
!! PR[23] 2K[0] 2G[12] 3K[13] 3G[3] 4A[6] 4Ü[0] 5A[0] 6K[0] 6G[0]
!! 7K[0] 7G[0] 8A[0] MEHR[0] SI[33] ABS[69] SR[12] SP[22]
!! ST[24] 2k[3] 2g[20] 3k[17] 3g[3] 4d[0] 4ü[0] 5d[0] 6k[0] 6g[0]
!! 7k[0] 7g[0] 8d[0] mehr[0] si[43] dm[-10] sr[23] sp[20]
!! 1F[70] 2F[30] 3F[0] 4F[0] LF[0] 2P[0] 3P[0] 4P[0] TRI[0] DF[2] AB[74]
!! TF[0] U3K[0] U3[0] U4[0] U4Ü[0] U5[0] U6K[0] U6[0] U7K[0] U7[0]
!! N1[0] N2K[0] N2[0] N3K[0] N3[9] N4[6] N4Ü[0] N5[34] N6K[0] N6[14]
!!!n7k: 0] N7[9] O1[20] O2K[0] O2[9] O3K[0] O3[0] HÖ[0
!!!RNB: symbol: &auml;      = a umlaut  (UTF-8: Å„)
